X: 74
M: 3/4
L: 1/8
K: D
[|\
{F2}E4 D2 | D2 F> G {F G} A2 | F3 E D2 |
(E<F) (d<B) (A<F) | {F2}E4 D2 :: c | d3 c (B/c/d) |
(c/d/e) (d<c) (B<A) | B3 A (B/A/F) | d3 e {d e }f2 |
{F2}E4 D2 :|

